packages/icons/svgs/solid/Source=c-info.svg

<svg xmlns="http://www.w3.org/2000/svg" width="12" height="12" viewBox="0 0 12 12"><g clip-path="url(#a)"><path d="M6 0C2.7 0 0 2.7 0 6s2.7 6 6 6 6-2.7 6-6-2.7-6-6-6Zm.75 9h-1.5V5.25h1.5V9ZM6 4.5c-.45 0-.75-.3-.75-.75S5.55 3 6 3s.75.3.75.75-.3.75-.75.75Z"/></g><defs><clipPath id="a"><path fill="#fff" d="M0 0h12v12H0z"/></clipPath></defs></svg>

<svg width="12" height="12" viewBox="0 0 12 12" fill="none" xmlns="http://www.w3.org/2000/svg">
<g clip-path="url(#clip0_821_693)">
<path d="M6 0C2.7 0 0 2.7 0 6C0 9.3 2.7 12 6 12C9.3 12 12 9.3 12 6C12 2.7 9.3 0 6 0ZM6.75 9H5.25V5.25H6.75V9ZM6 4.5C5.55 4.5 5.25 4.2 5.25 3.75C5.25 3.3 5.55 3 6 3C6.45 3 6.75 3.3 6.75 3.75C6.75 4.2 6.45 4.5 6 4.5Z" fill="black"/>
</g>
<defs>
<clipPath id="clip0_821_693">
<rect width="12" height="12" fill="white"/>
</clipPath>
</defs>
</svg>
